dist/styles/ag-theme-alpine/icons/asc.svg

<!-- Generated by IcoMoon.io -->
<svg version="1.1" xmlns="http://www.w3.org/2000/svg" width="32" height="32" viewBox="0 0 32 32">
<title>asc</title>
<path d="M5.333 16l1.88 1.88 7.453-7.44v16.227h2.667v-16.227l7.44 7.453 1.893-1.893-10.667-10.667-10.667 10.667z"></path>
</svg>

<?xml version="1.0" encoding="UTF-8" standalone="no"?>
<!DOCTYPE svg PUBLIC "-//W3C//DTD SVG 1.1//EN" "http://www.w3.org/Graphics/SVG/1.1/DTD/svg11.dtd">
<svg width="100%" height="100%" viewBox="0 0 32 32" version="1.1" xmlns="http://www.w3.org/2000/svg" xmlns:xlink="http://www.w3.org/1999/xlink" xml:space="preserve" xmlns:serif="http://www.serif.com/" style="fill-rule:evenodd;clip-rule:evenodd;stroke-linejoin:round;stroke-miterlimit:2;">
    <path id="asc" d="M5.333,16L7.213,17.88L14.666,10.44L14.666,26.667L17.333,26.667L17.333,10.44L24.773,17.893L26.666,16L15.999,5.333L5.332,16L5.333,16Z" style="fill-rule:nonzero;"/>
</svg>
